X: 26049
T: McCahill's
R: reel
M: 4/4
K: Dmajor
d2 cd BdAF|EFGA BE E2|Ad d2 fdAF|GBAG FDDA|
dDcD BDAF|EFGA BE E2|Adcd fdAF|GBAG FDDA||
BA^GB ADDA|BA^GA BcdA|BA^GB AFDF|1 GEFD EFGA:|2 GEFD EFGB||
e2 ^ge bege|Be^ge fgaf|e2 ^ge bege|aA^gA fecf|
e2 fe befe|e2 ag fgaf|e2 fe befe|fgag fedB|
e2 fe befe|e2 ag fgaf|e2 fe befe|fgag fe d2|
Bdcd B2 AF|GFGA BE E2|Bdcd B2 AF|GBAG FD D2|
BAFA A2 FA|BAFA Bd d2|BAFA ADFD|1 GEFD E2 E2:|2 GEFD E4||

